icon-svg/peppers.svg

<svg xmlns="http://www.w3.org/2000/svg" fill="#44739e" viewBox="0 0 24 24"><path d="M21.879 15.4c-.2-.371-.379-.4-1.065-.169a3.2 3.2 0 0 1-1.468.129 10.187 10.187 0 0 1-7.026-2.952A12.51 12.51 0 0 1 9.5 7.8 4.12 4.12 0 0 0 8.359 6a2.52 2.52 0 0 0-1.21-.533c-.121 0-.1.065.129.4a3.257 3.257 0 0 1 .533 2.42c-.024.645-.041 1.911-.041 2.823a7.7 7.7 0 0 0 .21 2.428 13.6 13.6 0 0 0 .46 1.371 1.82 1.82 0 0 0 .86 1.041 9.43 9.43 0 0 0 4.324 1.742 14.187 14.187 0 0 0 7.542-1.266c.826-.395.955-.581.713-1.026m-8.139 5.358a2.45 2.45 0 0 1-1.025-.339 10.415 10.415 0 0 1-5.767-8.744A16.8 16.8 0 0 1 7 9.537 7.84 7.84 0 0 0 7 7a2.626 2.626 0 0 0-.984-1.339c-.436-.282-.436-.234.032-1.492a5.52 5.52 0 0 0 .331-1.2.52.52 0 0 0-.262-.569 1.665 1.665 0 0 0-1.7-.258c-.17.137-.194.242-.25 1.274-.035.611-.067 1.305-.067 1.531-.008.387-.024.428-.25.516a2.89 2.89 0 0 0-1.073 1.186c-.847 1.678-1.016 4.977-.379 7.51a11.08 11.08 0 0 0 1.371 3.082 11.6 11.6 0 0 0 6.914 4.359 18.1 18.1 0 0 0 3.057.4c.452 0 .548-.032.718-.2a.524.524 0 0 0 .016-.8 1.076 1.076 0 0 0-.734-.242m-2.565-.291a6.9 6.9 0 0 1-.718-.242 8.935 8.935 0 0 1-5.6-6.405 12.36 12.36 0 0 1-.379-3.4 6.29 6.29 0 0 1 .8-3.67c.185-.226.331-.331.234-.177-.016.032-.1.4-.17.814a14.855 14.855 0 0 0 .452 7.083 10.257 10.257 0 0 0 4.8 5.63 4.14 4.14 0 0 1 .581.367"/></svg>

<?xml version="1.0" encoding="UTF-8"?>
<svg width="24px" fill="#44739e" height="24px" viewBox="0 0 24 24" version="1.1" xmlns="http://www.w3.org/2000/svg" xmlns:xlink="http://www.w3.org/1999/xlink">
            <path d="M 21.879,15.4 C 21.679,15.029 21.5,15 20.814,15.231 A 3.2,3.2 0 0 1 19.346,15.36 10.187,10.187 0 0 1 12.32,12.408 12.506,12.506 0 0 1 9.5,7.8 4.12,4.12 0 0 0 8.359,6 2.52,2.52 0 0 0 7.149,5.467 c -0.121,0 -0.1,0.065 0.129,0.4 a 3.257,3.257 0 0 1 0.533,2.42 C 7.787,8.932 7.77,10.198 7.77,11.11 a 7.694,7.694 0 0 0 0.21,2.428 13.554,13.554 0 0 0 0.46,1.371 1.821,1.821 0 0 0 0.86,1.041 9.432,9.432 0 0 0 4.324,1.742 14.187,14.187 0 0 0 7.542,-1.266 c 0.826,-0.395 0.955,-0.581 0.713,-1.026 z M 13.74,20.758 A 2.453,2.453 0 0 1 12.715,20.419 10.415,10.415 0 0 1 6.948,11.675 16.838,16.838 0 0 1 7,9.537 7.838,7.838 0 0 0 7,7 2.626,2.626 0 0 0 6.016,5.661 C 5.58,5.379 5.58,5.427 6.048,4.169 A 5.52,5.52 0 0 0 6.379,2.969 0.52,0.52 0 0 0 6.117,2.4 1.665,1.665 0 0 0 4.417,2.142 C 4.247,2.279 4.223,2.384 4.167,3.416 4.132,4.027 4.1,4.721 4.1,4.947 4.092,5.334 4.076,5.375 3.85,5.463 A 2.891,2.891 0 0 0 2.777,6.649 C 1.93,8.327 1.761,11.626 2.398,14.159 a 11.082,11.082 0 0 0 1.371,3.082 11.6,11.6 0 0 0 6.914,4.359 18.086,18.086 0 0 0 3.057,0.4 c 0.452,0 0.548,-0.032 0.718,-0.2 A 0.524,0.524 0 0 0 14.474,21 1.076,1.076 0 0 0 13.74,20.758 Z m -2.565,-0.291 a 6.865,6.865 0 0 1 -0.718,-0.242 8.935,8.935 0 0 1 -5.6,-6.405 12.361,12.361 0 0 1 -0.379,-3.4 6.291,6.291 0 0 1 0.8,-3.67 C 5.463,6.524 5.609,6.419 5.512,6.573 c -0.016,0.032 -0.1,0.4 -0.17,0.814 a 14.855,14.855 0 0 0 0.452,7.083 10.257,10.257 0 0 0 4.8,5.63 4.144,4.144 0 0 1 0.581,0.367 z"/>

</svg>
